bernoullicharts/1_3_x_1_1_3_x__bound.svg

<?xml version="1.0" encoding="utf-8" standalone="no"?>
<!DOCTYPE svg PUBLIC "-//W3C//DTD SVG 1.1//EN"
  "http://www.w3.org/Graphics/SVG/1.1/DTD/svg11.dtd">
<!-- Created with matplotlib (https://matplotlib.org/) -->
<svg height="345.6pt" version="1.1" viewBox="0 0 460.8 345.6" width="460.8pt" xmlns="http://www.w3.org/2000/svg" xmlns:xlink="http://www.w3.org/1999/xlink">
 <defs>
  <style type="text/css">
*{stroke-linecap:butt;stroke-linejoin:round;}
  </style>
 </defs>
 <g id="figure_1">
  <g id="patch_1">
   <path d="M 0 345.6 
L 460.8 345.6 
L 460.8 0 
L 0 0 
z
" style="fill:#ffffff;"/>
  </g>
  <g id="axes_1">
   <g id="patch_2">
    <path d="M 57.6 307.584 
L 414.72 307.584 
L 414.72 41.472 
L 57.6 41.472 
z
" style="fill:#ffffff;"/>
   </g>
   <g id="matplotlib.axis_1">
    <g id="xtick_1">
     <g id="line2d_1">
      <defs>
       <path d="M 0 0 
L 0 3.5 
" id="m262ff77639" style="stroke:#000000;stroke-width:0.8;"/>
      </defs>
      <g>
       <use style="stroke:#000000;stroke-width:0.8;" x="73.800255" xlink:href="#m262ff77639" y="307.584"/>
      </g>
     </g>
     <g id="text_1">
      <text style="font-family:DejaVu Sans;font-size:10px;font-style:normal;font-weight:normal;text-anchor:middle;" transform="rotate(-0, 73.800255, 322.182437)" x="73.800255" y="322.182437">0.0</text>
     </g>
    </g>
    <g id="xtick_2">
     <g id="line2d_2">
      <g>
       <use style="stroke:#000000;stroke-width:0.8;" x="138.744153" xlink:href="#m262ff77639" y="307.584"/>
      </g>
     </g>
     <g id="text_2">
      <text style="font-family:DejaVu Sans;font-size:10px;font-style:normal;font-weight:normal;text-anchor:middle;" transform="rotate(-0, 138.744153, 322.182437)" x="138.744153" y="322.182437">0.2</text>
     </g>
    </g>
    <g id="xtick_3">
     <g id="line2d_3">
      <g>
       <use style="stroke:#000000;stroke-width:0.8;" x="203.688051" xlink:href="#m262ff77639" y="307.584"/>
      </g>
     </g>
     <g id="text_3">
      <text style="font-family:DejaVu Sans;font-size:10px;font-style:normal;font-weight:normal;text-anchor:middle;" transform="rotate(-0, 203.688051, 322.182437)" x="203.688051" y="322.182437">0.4</text>
     </g>
    </g>
    <g id="xtick_4">
     <g id="line2d_4">
      <g>
       <use style="stroke:#000000;stroke-width:0.8;" x="268.631949" xlink:href="#m262ff77639" y="307.584"/>
      </g>
     </g>
     <g id="text_4">
      <text style="font-family:DejaVu Sans;font-size:10px;font-style:normal;font-weight:normal;text-anchor:middle;" transform="rotate(-0, 268.631949, 322.182437)" x="268.631949" y="322.182437">0.6</text>
     </g>
    </g>
    <g id="xtick_5">
     <g id="line2d_5">
      <g>
       <use style="stroke:#000000;stroke-width:0.8;" x="333.575847" xlink:href="#m262ff77639" y="307.584"/>
      </g>
     </g>
     <g id="text_5">
      <text style="font-family:DejaVu Sans;font-size:10px;font-style:normal;font-weight:normal;text-anchor:middle;" transform="rotate(-0, 333.575847, 322.182437)" x="333.575847" y="322.182437">0.8</text>
     </g>
    </g>
    <g id="xtick_6">
     <g id="line2d_6">
      <g>
       <use style="stroke:#000000;stroke-width:0.8;" x="398.519745" xlink:href="#m262ff77639" y="307.584"/>
      </g>
     </g>
     <g id="text_6">
      <text style="font-family:DejaVu Sans;font-size:10px;font-style:normal;font-weight:normal;text-anchor:middle;" transform="rotate(-0, 398.519745, 322.182437)" x="398.519745" y="322.182437">1.0</text>
     </g>
    </g>
    <g id="text_7">
     <text style="font-family:DejaVu Sans;font-size:10px;font-style:normal;font-weight:normal;text-anchor:middle;" transform="rotate(-0, 236.16, 335.860562)" x="236.16" y="335.860562">Input Coin's Heads Probability (λ)</text>
    </g>
   </g>
   <g id="matplotlib.axis_2">
    <g id="ytick_1">
     <g id="line2d_7">
      <defs>
       <path d="M 0 0 
L -3.5 0 
" id="me0a62aab5d" style="stroke:#000000;stroke-width:0.8;"/>
      </defs>
      <g>
       <use style="stroke:#000000;stroke-width:0.8;" x="57.6" xlink:href="#me0a62aab5d" y="295.499938"/>
      </g>
     </g>
     <g id="text_8">
      <text style="font-family:DejaVu Sans;font-size:10px;font-style:normal;font-weight:normal;text-anchor:end;" transform="rotate(-0, 50.6, 299.299157)" x="50.6" y="299.299157">0.00</text>
     </g>
    </g>
    <g id="ytick_2">
     <g id="line2d_8">
      <g>
       <use style="stroke:#000000;stroke-width:0.8;" x="57.6" xlink:href="#me0a62aab5d" y="263.666788"/>
      </g>
     </g>
     <g id="text_9">
      <text style="font-family:DejaVu Sans;font-size:10px;font-style:normal;font-weight:normal;text-anchor:end;" transform="rotate(-0, 50.6, 267.466007)" x="50.6" y="267.466007">0.05</text>
     </g>
    </g>
    <g id="ytick_3">
     <g id="line2d_9">
      <g>
       <use style="stroke:#000000;stroke-width:0.8;" x="57.6" xlink:href="#me0a62aab5d" y="231.833639"/>
      </g>
     </g>
     <g id="text_10">
      <text style="font-family:DejaVu Sans;font-size:10px;font-style:normal;font-weight:normal;text-anchor:end;" transform="rotate(-0, 50.6, 235.632857)" x="50.6" y="235.632857">0.10</text>
     </g>
    </g>
    <g id="ytick_4">
     <g id="line2d_10">
      <g>
       <use style="stroke:#000000;stroke-width:0.8;" x="57.6" xlink:href="#me0a62aab5d" y="200.000489"/>
      </g>
     </g>
     <g id="text_11">
      <text style="font-family:DejaVu Sans;font-size:10px;font-style:normal;font-weight:normal;text-anchor:end;" transform="rotate(-0, 50.6, 203.799708)" x="50.6" y="203.799708">0.15</text>
     </g>
    </g>
    <g id="ytick_5">
     <g id="line2d_11">
      <g>
       <use style="stroke:#000000;stroke-width:0.8;" x="57.6" xlink:href="#me0a62aab5d" y="168.167339"/>
      </g>
     </g>
     <g id="text_12">
      <text style="font-family:DejaVu Sans;font-size:10px;font-style:normal;font-weight:normal;text-anchor:end;" transform="rotate(-0, 50.6, 171.966558)" x="50.6" y="171.966558">0.20</text>
     </g>
    </g>
    <g id="ytick_6">
     <g id="line2d_12">
      <g>
       <use style="stroke:#000000;stroke-width:0.8;" x="57.6" xlink:href="#me0a62aab5d" y="136.334189"/>
      </g>
     </g>
     <g id="text_13">
      <text style="font-family:DejaVu Sans;font-size:10px;font-style:normal;font-weight:normal;text-anchor:end;" transform="rotate(-0, 50.6, 140.133408)" x="50.6" y="140.133408">0.25</text>
     </g>
    </g>
    <g id="ytick_7">
     <g id="line2d_13">
      <g>
       <use style="stroke:#000000;stroke-width:0.8;" x="57.6" xlink:href="#me0a62aab5d" y="104.50104"/>
      </g>
     </g>
     <g id="text_14">
      <text style="font-family:DejaVu Sans;font-size:10px;font-style:normal;font-weight:normal;text-anchor:end;" transform="rotate(-0, 50.6, 108.300258)" x="50.6" y="108.300258">0.30</text>
     </g>
    </g>
    <g id="ytick_8">
     <g id="line2d_14">
      <g>
       <use style="stroke:#000000;stroke-width:0.8;" x="57.6" xlink:href="#me0a62aab5d" y="72.66789"/>
      </g>
     </g>
     <g id="text_15">
      <text style="font-family:DejaVu Sans;font-size:10px;font-style:normal;font-weight:normal;text-anchor:end;" transform="rotate(-0, 50.6, 76.467109)" x="50.6" y="76.467109">0.35</text>
     </g>
    </g>
    <g id="text_16">
     <text style="font-family:DejaVu Sans;font-size:10px;font-style:normal;font-weight:normal;text-anchor:middle;" transform="rotate(-90, 22.254687, 174.528)" x="22.254687" y="174.528">Coin Flips Needed</text>
    </g>
   </g>
   <g id="line2d_15">
    <path clip-path="url(#p9f6c9f1612)" d="M 73.832727 83.314307 
L 77.112066 86.864372 
L 80.391405 90.371779 
L 83.670744 93.837143 
L 86.950083 97.26107 
L 90.229421 100.644152 
L 93.50876 103.986973 
L 96.788099 107.290107 
L 100.067438 110.554117 
L 103.346777 113.779559 
L 106.626116 116.966976 
L 109.905455 120.116903 
L 113.184793 123.229869 
L 116.464132 126.306388 
L 119.743471 129.346972 
L 123.02281 132.352119 
L 126.302149 135.322323 
L 129.581488 138.258066 
L 132.860826 141.159824 
L 136.140165 144.028065 
L 139.419504 146.863249 
L 142.698843 149.665829 
L 145.978182 152.436249 
L 149.257521 155.174948 
L 152.53686 157.882356 
L 155.816198 160.558896 
L 159.095537 163.204986 
L 162.374876 165.821036 
L 165.654215 168.407448 
L 168.933554 170.964619 
L 172.212893 173.492941 
L 175.492231 175.992798 
L 178.77157 178.464567 
L 182.050909 180.908621 
L 185.330248 183.325325 
L 188.609587 185.715041 
L 191.888926 188.078123 
L 195.168264 190.414921 
L 198.447603 192.725777 
L 201.726942 195.011031 
L 205.006281 197.271015 
L 208.28562 199.506057 
L 211.564959 201.716479 
L 214.844298 203.902601 
L 218.123636 206.064734 
L 221.402975 208.203187 
L 224.682314 210.318262 
L 227.961653 212.41026 
L 231.240992 214.479473 
L 234.520331 216.526191 
L 237.799669 218.5507 
L 241.079008 220.55328 
L 244.358347 222.534209 
L 247.637686 224.493758 
L 250.917025 226.432197 
L 254.196364 228.349789 
L 257.475702 230.246796 
L 260.755041 232.123473 
L 264.03438 233.980073 
L 267.313719 235.816846 
L 270.593058 237.634036 
L 273.872397 239.431886 
L 277.151736 241.210634 
L 280.431074 242.970514 
L 283.710413 244.711757 
L 286.989752 246.434592 
L 290.269091 248.139243 
L 293.54843 249.825931 
L 296.827769 251.494874 
L 300.107107 253.146287 
L 303.386446 254.780383 
L 306.665785 256.397369 
L 309.945124 257.997452 
L 313.224463 259.580834 
L 316.503802 261.147716 
L 319.78314 262.698294 
L 323.062479 264.232764 
L 326.341818 265.751315 
L 329.621157 267.254138 
L 332.900496 268.741418 
L 336.179835 270.213339 
L 339.459174 271.670082 
L 342.738512 273.111826 
L 346.017851 274.538746 
L 349.29719 275.951016 
L 352.576529 277.348806 
L 355.855868 278.732287 
L 359.135207 280.101624 
L 362.414545 281.456981 
L 365.693884 282.798521 
L 368.973223 284.126402 
L 372.252562 285.440783 
L 375.531901 286.741818 
L 378.81124 288.02966 
L 382.090579 289.304462 
L 385.369917 290.566372 
L 388.649256 291.815536 
L 391.928595 293.052101 
L 395.207934 294.276208 
L 398.487273 295.488 
" style="fill:none;stroke:#1f77b4;stroke-linecap:square;stroke-width:1.5;"/>
   </g>
   <g id="line2d_16">
    <path clip-path="url(#p9f6c9f1612)" d="M 73.832727 96.861084 
L 77.112066 93.041106 
L 80.391405 93.041106 
L 83.670744 76.487868 
L 86.950083 53.568 
L 90.229421 61.207956 
L 93.50876 81.581172 
L 96.788099 66.30126 
L 100.067438 72.66789 
L 103.346777 90.494454 
L 106.626116 103.227714 
L 109.905455 115.960973 
L 113.184793 86.674476 
L 116.464132 98.13441 
L 119.743471 95.587758 
L 123.02281 91.76778 
L 126.302149 107.047692 
L 129.581488 114.687648 
L 132.860826 85.40115 
L 136.140165 105.774366 
L 139.419504 84.127824 
L 142.698843 94.314432 
L 145.978182 80.307846 
L 149.257521 57.387978 
L 152.53686 110.86767 
L 155.816198 121.054277 
L 159.095537 104.50104 
L 162.374876 91.76778 
L 165.654215 98.13441 
L 168.933554 77.761194 
L 172.212893 99.407736 
L 175.492231 89.221128 
L 178.77157 99.407736 
L 182.050909 89.221128 
L 185.330248 67.574586 
L 188.609587 117.234299 
L 191.888926 91.76778 
L 195.168264 105.774366 
L 198.447603 118.507625 
L 201.726942 93.041106 
L 205.006281 117.234299 
L 208.28562 98.13441 
L 211.564959 127.420907 
L 214.844298 119.780951 
L 218.123636 93.041106 
L 221.402975 131.240885 
L 224.682314 107.047692 
L 227.961653 126.147581 
L 231.240992 129.967559 
L 234.520331 101.954388 
L 237.799669 101.954388 
L 241.079008 105.774366 
L 244.358347 95.587758 
L 247.637686 99.407736 
L 250.917025 122.327603 
L 254.196364 115.960973 
L 257.475702 135.060863 
L 260.755041 129.967559 
L 264.03438 119.780951 
L 267.313719 90.494454 
L 270.593058 131.240885 
L 273.872397 100.681062 
L 277.151736 96.861084 
L 280.431074 133.787537 
L 283.710413 127.420907 
L 286.989752 124.874255 
L 290.269091 128.694233 
L 293.54843 103.227714 
L 296.827769 128.694233 
L 300.107107 128.694233 
L 303.386446 99.407736 
L 306.665785 117.234299 
L 309.945124 127.420907 
L 313.224463 118.507625 
L 316.503802 132.514211 
L 319.78314 117.234299 
L 323.062479 109.594344 
L 326.341818 119.780951 
L 329.621157 152.887427 
L 332.900496 126.147581 
L 336.179835 122.327603 
L 339.459174 112.140996 
L 342.738512 129.967559 
L 346.017851 128.694233 
L 349.29719 122.327603 
L 352.576529 140.154167 
L 355.855868 142.700819 
L 359.135207 142.700819 
L 362.414545 149.067449 
L 365.693884 115.960973 
L 368.973223 132.514211 
L 372.252562 132.514211 
L 375.531901 151.614101 
L 378.81124 135.060863 
L 382.090579 110.86767 
L 385.369917 131.240885 
L 388.649256 128.694233 
L 391.928595 142.700819 
L 395.207934 119.780951 
L 398.487273 138.880841 
" style="fill:none;stroke:#ff7f0e;stroke-linecap:square;stroke-width:1.5;"/>
   </g>
   <g id="patch_3">
    <path d="M 57.6 307.584 
L 57.6 41.472 
" style="fill:none;stroke:#000000;stroke-linecap:square;stroke-linejoin:miter;stroke-width:0.8;"/>
   </g>
   <g id="patch_4">
    <path d="M 414.72 307.584 
L 414.72 41.472 
" style="fill:none;stroke:#000000;stroke-linecap:square;stroke-linejoin:miter;stroke-width:0.8;"/>
   </g>
   <g id="patch_5">
    <path d="M 57.6 307.584 
L 414.72 307.584 
" style="fill:none;stroke:#000000;stroke-linecap:square;stroke-linejoin:miter;stroke-width:0.8;"/>
   </g>
   <g id="patch_6">
    <path d="M 57.6 41.472 
L 414.72 41.472 
" style="fill:none;stroke:#000000;stroke-linecap:square;stroke-linejoin:miter;stroke-width:0.8;"/>
   </g>
   <g id="text_17">
    <text style="font-family:DejaVu Sans;font-size:12px;font-style:normal;font-weight:normal;text-anchor:middle;" transform="rotate(-0, 236.16, 35.472)" x="236.16" y="35.472">Coin Flips for (1/3)*x/(1+(1/3)*x)</text>
   </g>
   <g id="legend_1">
    <g id="patch_7">
     <path d="M 64.6 302.584 
L 287.310938 302.584 
Q 289.310938 302.584 289.310938 300.584 
L 289.310938 272.22775 
Q 289.310938 270.22775 287.310938 270.22775 
L 64.6 270.22775 
Q 62.6 270.22775 62.6 272.22775 
L 62.6 300.584 
Q 62.6 302.584 64.6 302.584 
z
" style="fill:#ffffff;opacity:0.8;stroke:#cccccc;stroke-linejoin:miter;"/>
    </g>
    <g id="line2d_17">
     <path d="M 66.6 278.326187 
L 86.6 278.326187 
" style="fill:none;stroke:#1f77b4;stroke-linecap:square;stroke-width:1.5;"/>
    </g>
    <g id="line2d_18"/>
    <g id="text_18">
     <text style="font-family:DejaVu Sans;font-size:10px;font-style:normal;font-weight:normal;text-anchor:start;" transform="rotate(-0, 94.6, 281.826187)" x="94.6" y="281.826187">Coin Flip Lower Bound (Mendo)</text>
    </g>
    <g id="line2d_19">
     <path d="M 66.6 293.004312 
L 86.6 293.004312 
" style="fill:none;stroke:#ff7f0e;stroke-linecap:square;stroke-width:1.5;"/>
    </g>
    <g id="line2d_20"/>
    <g id="text_19">
     <text style="font-family:DejaVu Sans;font-size:10px;font-style:normal;font-weight:normal;text-anchor:start;" transform="rotate(-0, 94.6, 296.504312)" x="94.6" y="296.504312">Avg. Coins Flipped (1/3)*x/(1+(1/3)*x)</text>
    </g>
   </g>
  </g>
 </g>
 <defs>
  <clipPath id="p9f6c9f1612">
   <rect height="266.112" width="357.12" x="57.6" y="41.472"/>
  </clipPath>
 </defs>
</svg>

<svg height="460.8" viewBox="0 0 460.8 345.6" width="614.4" xmlns="http://www.w3.org/2000/svg" xmlns:xlink="http://www.w3.org/1999/xlink"><defs><style>*{stroke-linecap:butt;stroke-linejoin:round}</style></defs><g id="figure_1"><path d="M0 345.6h460.8V0H0z" fill="#fff" id="patch_1"/><g id="axes_1"><path d="M57.6 307.584h357.12V41.472H57.6z" fill="#fff" id="patch_2"/><g id="matplotlib.axis_1"><g id="xtick_1"><g id="line2d_1"><defs><path d="M0 0v3.5" id="m262ff77639" stroke="#000" stroke-width=".8"/></defs><use x="73.8" xlink:href="#m262ff77639" y="307.584" stroke="#000" stroke-width=".8"/></g><text x="73.8" y="322.182" font-family="DejaVu Sans" font-size="10" font-weight="400" text-anchor="middle" id="text_1">0.0</text></g><g id="xtick_2"><use x="138.744" xlink:href="#m262ff77639" y="307.584" stroke="#000" stroke-width=".8" id="line2d_2"/><text x="138.744" y="322.182" font-family="DejaVu Sans" font-size="10" font-weight="400" text-anchor="middle" id="text_2">0.2</text></g><g id="xtick_3"><use x="203.688" xlink:href="#m262ff77639" y="307.584" stroke="#000" stroke-width=".8" id="line2d_3"/><text x="203.688" y="322.182" font-family="DejaVu Sans" font-size="10" font-weight="400" text-anchor="middle" id="text_3">0.4</text></g><g id="xtick_4"><use x="268.632" xlink:href="#m262ff77639" y="307.584" stroke="#000" stroke-width=".8" id="line2d_4"/><text x="268.632" y="322.182" font-family="DejaVu Sans" font-size="10" font-weight="400" text-anchor="middle" id="text_4">0.6</text></g><g id="xtick_5"><use x="333.576" xlink:href="#m262ff77639" y="307.584" stroke="#000" stroke-width=".8" id="line2d_5"/><text x="333.576" y="322.182" font-family="DejaVu Sans" font-size="10" font-weight="400" text-anchor="middle" id="text_5">0.8</text></g><g id="xtick_6"><use x="398.52" xlink:href="#m262ff77639" y="307.584" stroke="#000" stroke-width=".8" id="line2d_6"/><text x="398.52" y="322.182" font-family="DejaVu Sans" font-size="10" font-weight="400" text-anchor="middle" id="text_6">1.0</text></g><text x="236.16" y="335.861" font-family="DejaVu Sans" font-size="10" font-weight="400" text-anchor="middle" id="text_7">Input Coin&apos;s Heads Probability (λ)</text></g><g id="matplotlib.axis_2"><g id="ytick_1"><g id="line2d_7"><defs><path d="M0 0h-3.5" id="me0a62aab5d" stroke="#000" stroke-width=".8"/></defs><use x="57.6" xlink:href="#me0a62aab5d" y="295.5" stroke="#000" stroke-width=".8"/></g><text x="50.6" y="299.299" font-family="DejaVu Sans" font-size="10" font-weight="400" text-anchor="end" id="text_8">0.00</text></g><g id="ytick_2"><use x="57.6" xlink:href="#me0a62aab5d" y="263.667" stroke="#000" stroke-width=".8" id="line2d_8"/><text x="50.6" y="267.466" font-family="DejaVu Sans" font-size="10" font-weight="400" text-anchor="end" id="text_9">0.05</text></g><g id="ytick_3"><use x="57.6" xlink:href="#me0a62aab5d" y="231.834" stroke="#000" stroke-width=".8" id="line2d_9"/><text x="50.6" y="235.633" font-family="DejaVu Sans" font-size="10" font-weight="400" text-anchor="end" id="text_10">0.10</text></g><g id="ytick_4"><use x="57.6" xlink:href="#me0a62aab5d" y="200" stroke="#000" stroke-width=".8" id="line2d_10"/><text x="50.6" y="203.8" font-family="DejaVu Sans" font-size="10" font-weight="400" text-anchor="end" id="text_11">0.15</text></g><g id="ytick_5"><use x="57.6" xlink:href="#me0a62aab5d" y="168.167" stroke="#000" stroke-width=".8" id="line2d_11"/><text x="50.6" y="171.967" font-family="DejaVu Sans" font-size="10" font-weight="400" text-anchor="end" id="text_12">0.20</text></g><g id="ytick_6"><use x="57.6" xlink:href="#me0a62aab5d" y="136.334" stroke="#000" stroke-width=".8" id="line2d_12"/><text x="50.6" y="140.133" font-family="DejaVu Sans" font-size="10" font-weight="400" text-anchor="end" id="text_13">0.25</text></g><g id="ytick_7"><use x="57.6" xlink:href="#me0a62aab5d" y="104.501" stroke="#000" stroke-width=".8" id="line2d_13"/><text x="50.6" y="108.3" font-family="DejaVu Sans" font-size="10" font-weight="400" text-anchor="end" id="text_14">0.30</text></g><g id="ytick_8"><use x="57.6" xlink:href="#me0a62aab5d" y="72.668" stroke="#000" stroke-width=".8" id="line2d_14"/><text x="50.6" y="76.467" font-family="DejaVu Sans" font-size="10" font-weight="400" text-anchor="end" id="text_15">0.35</text></g><text transform="rotate(-90 22.255 174.528)" x="22.255" y="174.528" font-family="DejaVu Sans" font-size="10" font-weight="400" text-anchor="middle" id="text_16">Coin Flips Needed</text></g><path clip-path="url(#p9f6c9f1612)" d="M73.833 83.314l3.28 3.55 3.278 3.508 3.28 3.465 3.28 3.424 3.278 3.383 3.28 3.343 3.28 3.303 3.278 3.264 3.28 3.226 3.28 3.187 3.278 3.15 3.28 3.113 3.28 3.076 3.278 3.041 3.28 3.005 3.28 2.97 3.278 2.936 3.28 2.902 3.28 2.868 3.279 2.835 3.279 2.803 3.28 2.77 3.279 2.739 3.279 2.707 3.28 2.677 3.279 2.646 3.279 2.616 3.28 2.586 3.279 2.558 3.279 2.528 3.28 2.5 3.279 2.472 3.279 2.444 3.28 2.416 3.279 2.39 3.279 2.363 3.28 2.337 3.279 2.31 3.279 2.286 3.28 2.26 3.279 2.235 3.279 2.21 3.28 2.187 3.279 2.162 3.279 2.138 3.28 2.115 3.279 2.092 3.279 2.07 3.28 2.046 3.279 2.025 3.279 2.002 3.28 1.981 3.279 1.96 3.279 1.938 3.28 1.918 3.279 1.897 3.279 1.876 3.28 1.857 3.279 1.837 3.28 1.817 3.278 1.798 3.28 1.779 3.28 1.76 3.278 1.74 3.28 1.724 3.28 1.704 3.278 1.687 3.28 1.669 3.28 1.651 3.278 1.634 3.28 1.617 3.28 1.6 3.278 1.584 3.28 1.567 3.28 1.55 3.278 1.535 3.28 1.518 3.28 1.503 3.278 1.487 3.28 1.472 3.28 1.457 3.279 1.442 3.279 1.427 3.28 1.412 3.279 1.398 3.279 1.383 3.28 1.37 3.279 1.355 3.279 1.342 3.28 1.327 3.279 1.315 3.279 1.3 3.28 1.289 3.279 1.274 3.279 1.262 3.28 1.25 3.279 1.236 3.279 1.224 3.28 1.212" fill="none" stroke="#1f77b4" stroke-linecap="square" stroke-width="1.5" id="line2d_15"/><path clip-path="url(#p9f6c9f1612)" d="M73.833 96.861l3.28-3.82h3.278l3.28-16.553 3.28-22.92 3.278 7.64 3.28 20.373 3.28-15.28 3.278 6.367 3.28 17.826 3.28 12.734 3.278 12.733 3.28-29.287 3.28 11.46 3.278-2.546 3.28-3.82 3.28 15.28 3.278 7.64 3.28-29.287 3.28 20.373 3.279-21.646 3.279 10.186 3.28-14.006 3.279-22.92 3.279 53.48 3.28 10.186 3.279-16.553 3.279-12.733 3.28 6.366 3.279-20.373 3.279 21.647 3.28-10.187 3.279 10.187 3.279-10.187 3.28-21.646 3.279 49.66 3.279-25.467 3.28 14.006 3.279 12.734 3.279-25.467 3.28 24.193 3.279-19.1 3.279 29.287 3.28-7.64 3.279-26.74 3.279 38.2 3.28-24.193 3.279 19.1 3.279 3.82 3.28-28.014h3.279l3.279 3.82 3.28-10.186 3.279 3.82 3.279 22.92 3.28-6.367 3.279 19.1 3.279-5.093 3.28-10.187 3.279-29.287 3.28 40.747 3.278-30.56 3.28-3.82 3.28 36.927 3.278-6.367 3.28-2.547 3.28 3.82 3.278-25.466 3.28 25.466h3.28l3.278-29.286 3.28 17.826 3.28 10.187 3.278-8.913 3.28 14.006 3.28-15.28 3.278-7.64 3.28 10.187 3.28 33.106 3.278-26.74 3.28-3.82 3.28-10.186 3.279 17.827 3.279-1.274 3.28-6.366 3.279 17.826 3.279 2.547h3.28l3.279 6.366 3.279-33.106 3.28 16.553h3.279l3.279 19.1 3.28-16.553 3.279-24.193 3.279 20.373 3.28-2.547 3.279 14.007 3.279-22.92 3.28 19.1" fill="none" stroke="#ff7f0e" stroke-linecap="square" stroke-width="1.5" id="line2d_16"/><path d="M57.6 307.584V41.472" fill="none" stroke="#000" stroke-linecap="square" stroke-width=".8" id="patch_3"/><path d="M414.72 307.584V41.472" fill="none" stroke="#000" stroke-linecap="square" stroke-width=".8" id="patch_4"/><path d="M57.6 307.584h357.12" fill="none" stroke="#000" stroke-linecap="square" stroke-width=".8" id="patch_5"/><path d="M57.6 41.472h357.12" fill="none" stroke="#000" stroke-linecap="square" stroke-width=".8" id="patch_6"/><text x="236.16" y="35.472" font-family="DejaVu Sans" font-size="12" font-weight="400" text-anchor="middle" id="text_17">Coin Flips for (1/3)*x/(1+(1/3)*x)</text><g id="legend_1"><path d="M64.6 302.584h222.71q2 0 2-2v-28.356q0-2-2-2H64.6q-2 0-2 2v28.356q0 2 2 2z" fill="#fff" opacity=".8" stroke="#ccc" id="patch_7"/><path d="M66.6 278.326h20" fill="none" stroke="#1f77b4" stroke-linecap="square" stroke-width="1.5" id="line2d_17"/><text x="94.6" y="281.826" font-family="DejaVu Sans" font-size="10" font-weight="400" id="text_18">Coin Flip Lower Bound (Mendo)</text><path d="M66.6 293.004h20" fill="none" stroke="#ff7f0e" stroke-linecap="square" stroke-width="1.5" id="line2d_19"/><text x="94.6" y="296.504" font-family="DejaVu Sans" font-size="10" font-weight="400" id="text_19">Avg. Coins Flipped (1/3)*x/(1+(1/3)*x)</text></g></g></g><defs><clipPath id="p9f6c9f1612"><path d="M57.6 41.472h357.12v266.112H57.6z"/></clipPath></defs></svg>
